app/component-library/components/Icons/Icon/assets/user-remove.svg

<svg width="24" height="24" viewBox="0 0 24 24" fill="none" xmlns="http://www.w3.org/2000/svg">
<path fill-rule="evenodd" clip-rule="evenodd" d="M16.2812 7C16.2812 9.76142 14.0427 12 11.2812 12C8.51983 12 6.28125 9.76142 6.28125 7C6.28125 4.23858 8.51983 2 11.2812 2C14.0427 2 16.2812 4.23858 16.2812 7ZM2.28125 21.5C2.28125 17.36 6.36125 14 11.3713 14C12.7936 14 14.1411 14.2708 15.3414 14.7535C14.8318 15.4544 14.5312 16.3171 14.5312 17.25C14.5312 19.5972 16.434 21.5 18.7812 21.5C19.3744 21.5 19.9391 21.3785 20.452 21.159C20.4581 21.272 20.4613 21.3857 20.4613 21.5C20.4613 21.78 20.2413 22 19.9613 22H2.78125C2.50125 22 2.28125 21.78 2.28125 21.5Z" fill="currentColor"/>
<path fill-rule="evenodd" clip-rule="evenodd" d="M18.7812 21.25C20.9904 21.25 22.7812 19.4591 22.7812 17.25C22.7812 15.0409 20.9904 13.25 18.7812 13.25C16.5721 13.25 14.7812 15.0409 14.7812 17.25C14.7812 19.4591 16.5721 21.25 18.7812 21.25ZM20.1921 16.5465C20.3874 16.3512 20.3874 16.0346 20.1921 15.8394C19.9968 15.6441 19.6803 15.6441 19.485 15.8394L18.8062 16.5182L18.106 15.818C17.9107 15.6227 17.5942 15.6227 17.3989 15.818C17.2036 16.0132 17.2036 16.3298 17.3989 16.5251L18.0991 17.2253L17.3707 17.9536C17.1755 18.1489 17.1755 18.4654 17.3707 18.6607C17.566 18.856 17.8826 18.856 18.0779 18.6607L18.8062 17.9324L19.5061 18.6322C19.7013 18.8275 20.0179 18.8275 20.2132 18.6322C20.4084 18.437 20.4084 18.1204 20.2132 17.9251L19.5133 17.2253L20.1921 16.5465Z" fill="currentColor"/>
</svg>

<svg xmlns="http://www.w3.org/2000/svg" width="24" height="24" viewBox="0 0 24 24" fill="none"><path fill="currentColor" fill-rule="evenodd" d="M16.281 7a5 5 0 1 1-10 0 5 5 0 0 1 10 0Zm-14 14.5c0-4.14 4.08-7.5 9.09-7.5 1.423 0 2.77.27 3.97.754a4.25 4.25 0 0 0 5.11 6.405c.007.113.01.227.01.341 0 .28-.22.5-.5.5H2.781c-.28 0-.5-.22-.5-.5Z" clip-rule="evenodd"/><path fill="currentColor" fill-rule="evenodd" d="M18.781 21.25a4 4 0 1 0 0-8 4 4 0 0 0 0 8Zm1.411-4.703a.5.5 0 1 0-.707-.708l-.679.68-.7-.701a.5.5 0 1 0-.707.707l.7.7-.728.729a.5.5 0 0 0 .707.707l.728-.729.7.7a.5.5 0 1 0 .707-.707l-.7-.7.68-.678Z" clip-rule="evenodd"/></svg>
